X: 2851
T: Bare Assed, The
R: barndance
M: 4/4
K: Gmajor
GDGA GEDF|G3 A B/c/d dg|e/g/e dg edBd|gedB AGEF|
G2 GA GE D2|GFGA BdGd|e2 ed B^A B/c/d|gedB G2:|
e2 e^d ef g2|ed B/c/d ef g2|edBd gdBd|
[1 eGdG AG E/F/G|e3 ^d ef g2|ed B/c/d eGge|eGdG gd (3Bcd|eGdB G2:|
[2 gGdG AF D/E/F|G/A/G DA GE D2|~G3 A BdGd|eged B^ABd|gedB G2||

